icon-themes/breeze_svg/cmd/ar/lc_alphalowliststyle.svg

<svg viewBox="0 0 24 24" xmlns="http://www.w3.org/2000/svg"><path d="m12 3v1h-9v-1zm0 2v1h-6v-1zm0 4v1h-9v-1zm0 2v1h-2v-1zm0 4v1h-9v-1zm0 2v1h-6v-1zm-7 1v1h-2v-1z" fill="#4d4d4d"/><g fill="#1d99f3"><path d="m17.5 3c-1.380712 0-2.5 1.1192881-2.5 2.5s1.119288 2.5 2.5 2.5c.541371-.0011264 1.067749-.1779563 1.5-.5039062v.5039062h1v-2.5-2.5h-1v.5019531c-.432496-.3252525-.958852-.5013898-1.5-.5019531zm0 1c.828427 0 1.5.6715729 1.5 1.5s-.671573 1.5-1.5 1.5-1.5-.6715729-1.5-1.5.671573-1.5 1.5-1.5z"/><path d="m15 13v7h1v-.501953c.432496.325252.958852.50139 1.5.501953 1.380712 0 2.5-1.119288 2.5-2.5s-1.119288-2.5-2.5-2.5c-.541371.0011-1.067749.177956-1.5.503906v-2.503906zm2.5 3c.828427 0 1.5.671573 1.5 1.5s-.671573 1.5-1.5 1.5-1.5-.671573-1.5-1.5.671573-1.5 1.5-1.5z"/></g></svg>

<svg xmlns="http://www.w3.org/2000/svg" viewBox="0 0 24 24">
  <path
     style="fill:#4d4d4d"
     d="M 12,3 V 4 H 3 V 3 Z m 0,2 V 6 H 6 V 5 Z m 0,4 v 1 H 3 V 9 Z m 0,2 v 1 h -2 v -1 z m 0,4 v 1 H 3 v -1 z m 0,2 v 1 H 6 v -1 z m -7,1 v 1 H 3 v -1 z"
     />
  <g
     >
    <path
       d="M 17.5,3 C 16.119288,3 15,4.1192881 15,5.5 15,6.8807119 16.119288,8 17.5,8 18.041371,7.9988736 18.567749,7.8220437 19,7.4960938 V 8 h 1 V 5.5 3 H 19 V 3.5019531 C 18.567504,3.1767006 18.041148,3.0005633 17.5,3 Z m 0,1 C 18.328427,4 19,4.6715729 19,5.5 19,6.3284271 18.328427,7 17.5,7 16.671573,7 16,6.3284271 16,5.5 16,4.6715729 16.671573,4 17.5,4 Z"
       style="fill:#1d99f3"
       />
    <path
       d="m 15,13 v 7 h 1 V 19.498047 C 16.432496,19.823299 16.958852,19.999437 17.5,20 18.880712,20 20,18.880712 20,17.5 20,16.119288 18.880712,15 17.5,15 16.958629,15.0011 16.432251,15.177956 16,15.503906 V 13 Z m 2.5,3 C 18.328427,16 19,16.671573 19,17.5 19,18.328427 18.328427,19 17.5,19 16.671573,19 16,18.328427 16,17.5 16,16.671573 16.671573,16 17.5,16 Z"
       style="fill:#1d99f3"
       />
  </g>
</svg>
